src/lib/packages/icons/src/assets/line/octagon-plus.svg

<svg width="24" height="24" viewBox="0 0 24 24" fill="none" xmlns="http://www.w3.org/2000/svg">
<path d="M21.0911 7.03003L16.97 2.90894C16.551 2.48994 15.9709 2.25 15.3789 2.25H8.62109C8.02909 2.25 7.44903 2.48994 7.03003 2.90894L2.90894 7.03003C2.48994 7.44903 2.25 8.02909 2.25 8.62109V15.3789C2.25 15.9709 2.48994 16.551 2.90894 16.97L7.03003 21.0911C7.44903 21.5101 8.02909 21.75 8.62109 21.75H15.3789C15.9709 21.75 16.551 21.5101 16.97 21.0911L21.0911 16.97C21.5101 16.551 21.75 15.9709 21.75 15.3789V8.62109C21.75 8.02909 21.5101 7.44903 21.0911 7.03003ZM20.25 15.3789C20.25 15.5759 20.17 15.7699 20.03 15.9089L15.9089 20.03C15.7689 20.17 15.5759 20.25 15.3789 20.25H8.62109C8.42409 20.25 8.23006 20.17 8.09106 20.03L3.96997 15.9089C3.82997 15.7689 3.75 15.5759 3.75 15.3789V8.62109C3.75 8.42409 3.82997 8.23006 3.96997 8.09106L8.09106 3.96997C8.23106 3.82997 8.42409 3.75 8.62109 3.75H15.3789C15.5759 3.75 15.7699 3.82997 15.9089 3.96997L20.03 8.09106C20.17 8.23106 20.25 8.42409 20.25 8.62109V15.3789ZM15.75 12C15.75 12.414 15.414 12.75 15 12.75H12.75V15C12.75 15.414 12.414 15.75 12 15.75C11.586 15.75 11.25 15.414 11.25 15V12.75H9C8.586 12.75 8.25 12.414 8.25 12C8.25 11.586 8.586 11.25 9 11.25H11.25V9C11.25 8.586 11.586 8.25 12 8.25C12.414 8.25 12.75 8.586 12.75 9V11.25H15C15.414 11.25 15.75 11.586 15.75 12Z" fill="currentColor"/>
</svg>

<svg xmlns="http://www.w3.org/2000/svg" width="24" height="24" fill="none"><path fill="currentColor" d="M21.091 7.03 16.97 2.909c-.419-.42-1-.659-1.591-.659H8.62c-.592 0-1.172.24-1.591.659L2.909 7.03c-.42.419-.659 1-.659 1.591v6.758c0 .592.24 1.172.659 1.591l4.121 4.121c.419.42 1 .659 1.591.659h6.758c.592 0 1.172-.24 1.591-.659l4.121-4.121c.42-.419.659-1 .659-1.591V8.62c0-.592-.24-1.172-.659-1.591Zm-.841 8.349c0 .197-.08.39-.22.53l-4.121 4.121a.755.755 0 0 1-.53.22H8.62a.753.753 0 0 1-.53-.22l-4.12-4.121a.754.754 0 0 1-.22-.53V8.62c0-.197.08-.39.22-.53l4.121-4.12c.14-.14.333-.22.53-.22h6.758c.197 0 .39.08.53.22l4.121 4.121c.14.14.22.333.22.53v6.758ZM15.75 12a.75.75 0 0 1-.75.75h-2.25V15a.75.75 0 0 1-1.5 0v-2.25H9a.75.75 0 0 1 0-1.5h2.25V9a.75.75 0 0 1 1.5 0v2.25H15a.75.75 0 0 1 .75.75Z"/></svg>
